X:1
T:[ID 2-23b]
T:[ID 2-23b]
T:Bezeichnung standardisiert: Tantz Tantz
T:Urheber unbekannt Datum in der hier transkribierten schriftlichen Quelle: 1773
C:Urheber unbekannt
C:Datum in der hier transkribierten schriftlichen Quelle: 1773
L:1/8
M:2/4
K:D
V:1 treble 
V:1
 AAAA | BB B2 | cd"^1)" e/g/e/c/ | dAFD | AAAA | BB B2 | cd"^1)" e/g/e/c/ | d2 D2 :: ffff | ee e2 | %10
 dddd | cc c2 | BBBB | AAAg | fe/d/ee | d2 D2 :| %16

